packages/bezier-icons/icons/plus-circle.svg

<svg width="24" height="24" viewBox="0 0 24 24" fill="none" xmlns="http://www.w3.org/2000/svg">
<path fill-rule="evenodd" clip-rule="evenodd" d="M4.00018 12.0001C4.00018 16.4111 7.58918 20.0001 12.0002 20.0001C16.4112 20.0001 20.0002 16.4111 20.0002 12.0001C20.0002 7.58912 16.4112 4.00012 12.0002 4.00012C7.58918 4.00012 4.00018 7.58912 4.00018 12.0001ZM2.00018 12.0001C2.00018 6.47712 6.47718 2.00012 12.0002 2.00012C17.5232 2.00012 22.0002 6.47712 22.0002 12.0001C22.0002 17.5231 17.5232 22.0001 12.0002 22.0001C6.47718 22.0001 2.00018 17.5231 2.00018 12.0001ZM11 8C11 7.44772 11.4477 7 12 7C12.5523 7 13 7.44772 13 8V11H16C16.5523 11 17 11.4477 17 12C17 12.5523 16.5523 13 16 13H13V16C13 16.5523 12.5523 17 12 17C11.4477 17 11 16.5523 11 16V13H8C7.44772 13 7 12.5523 7 12C7 11.4477 7.44772 11 8 11H11V8Z" fill="#313234"/>
</svg>

<svg xmlns="http://www.w3.org/2000/svg" width="24" height="24" fill="none" viewBox="0 0 24 24"><path fill="#313234" fill-rule="evenodd" d="M4 12c0 4.411 3.59 8 8 8s8-3.589 8-8-3.589-8-8-8-8 3.59-8 8m-2 0C2 6.477 6.477 2 12 2s10 4.477 10 10-4.477 10-10 10S2 17.523 2 12m9-4a1 1 0 1 1 2 0v3h3a1 1 0 1 1 0 2h-3v3a1 1 0 1 1-2 0v-3H8a1 1 0 1 1 0-2h3z" clip-rule="evenodd"/></svg>
